modules/feathericon/icons/mention.svg

<?xml version="1.0" encoding="UTF-8"?>
<svg width="14px" height="14px" viewBox="0 0 14 14" version="1.1" xmlns="http://www.w3.org/2000/svg" xmlns:xlink="http://www.w3.org/1999/xlink">
    <!-- Generator: sketchtool 48.1 (47250) - http://www.bohemiancoding.com/sketch -->
    <title>mention</title>
    <desc>Created with sketchtool.</desc>
    <defs></defs>
    <g id="web-app" stroke="none" stroke-width="1" fill="none" fill-rule="evenodd">
        <g id="mention" fill="#000000">
            <path d="M12.6388565,7 C12.6388565,3.57248077 9.50346527,1.2 7,1.2 C4.49653473,1.2 1.2,3.4 1.2,7 C1.2,10.6 4.2,12.8 7,12.8 C9.8,12.8 11,11.2 11,11.2 C11,11.2 12.0525246,11.8638405 12.0325371,11.8638405 C10.9098579,13.013562 9.18168002,14 7,14 C3.13400675,14 0,10.8659932 0,7 C0,3.13400675 3.13400675,0 7,0 C10.8659932,0 14,3.2 14,7 C14,8.2 12.8806702,9.92710648 11.9156006,10.2900581 C10.8323463,10.735807 9.54021449,10.4764166 8.76929474,9.74439926 C8.62363614,9.60609093 8.30331768,9.15620582 8.20137825,8.9777028 C7.68869132,9.72203838 7.4,10.2 6.4,10.2 C4.4536027,10.2 3.4,8.77568512 3.4,7 C3.4,5.22431488 4.4536027,3.8 6.2,3.8 C7.5237709,3.8 8.07477722,4.85111961 8.07477719,4.85111953 C8.13416216,4.58104329 8.33078663,3.85720834 8.34908542,3.8 L9.8,3.8 C9.80800018,3.81004465 9.49952316,4.73421059 9.45199966,5.06707687 C9.03751678,7 9.02164001,8.36206818 9.6,8.89188232 C10.2296852,9.36667557 11.0252892,9.52694092 11.6990761,8.97770309 C12.3746689,8.44536285 12.6388565,7.59856567 12.6388565,7 Z M7.6,7 C7.6,5.98339148 6.9483827,5.2 6.2,5.2 C5.4516173,5.2 4.8,5.98339148 4.8,7 C4.8,8.01660852 5.4516173,8.8 6.2,8.8 C6.9483827,8.8 7.6,8.01660852 7.6,7 Z" id="Shape"></path>
        </g>
    </g>
</svg>

<svg width="14" height="14" viewBox="0 0 14 14" xmlns="http://www.w3.org/2000/svg"><path d="M12.639 7c0-3.428-3.136-5.8-5.639-5.8S1.2 3.4 1.2 7c0 3.6 3 5.8 5.8 5.8s4-1.6 4-1.6 1.053.664 1.033.664C10.91 13.014 9.182 14 7 14A7 7 0 0 1 7 0c3.866 0 7 3.2 7 7 0 1.2-1.12 2.927-2.084 3.29-1.084.446-2.376.186-3.147-.546-.145-.138-.466-.588-.568-.766C7.69 9.722 7.4 10.2 6.4 10.2c-1.946 0-3-1.424-3-3.2 0-1.776 1.054-3.2 2.8-3.2 1.324 0 1.875 1.051 1.875 1.051.06-.27.256-.994.274-1.051H9.8c.008.01-.3.934-.348 1.267C9.038 7 9.022 8.362 9.6 8.892c.63.475 1.425.635 2.1.086.675-.533.939-1.38.939-1.978zM7.6 7c0-1.017-.652-1.8-1.4-1.8-.748 0-1.4.783-1.4 1.8s.652 1.8 1.4 1.8c.748 0 1.4-.783 1.4-1.8z" fill="#000" fill-rule="evenodd"/></svg>
